assets/food_25.svg

<svg viewBox="0 0 33.3866 42.5977" xmlns="http://www.w3.org/2000/svg"><path d="m30.1847 41.8474h-26.8716a2.2667 2.2667 0 0 1 -2.26-2.5284c.4916-4.199 1.4075-12.4916 1.4075-15.9611 0-3.8236-1.1124-14.066-1.543-17.8878a1.3182 1.3182 0 0 1 1.3138-1.4649h28.992a1.3208 1.3208 0 0 1 1.3189 1.4079c-.2558 3.8653-2.182 14.9-2.182 18.75 0 3.4636 1.7951 11.2019 2.093 15.2532a2.2666 2.2666 0 0 1 -2.2686 2.4311z" fill="#f7f6e8"/><path d="m30.1845 42.5977h-26.8716a3.0174 3.0174 0 0 1 -3.0049-3.3653c.422-3.6006 1.402-12.3545 1.402-15.875 0-3.7474-1.0753-13.6992-1.5377-17.8037a2.0693 2.0693 0 0 1 2.0591-2.2988h28.9922a2.0719 2.0719 0 0 1 2.0673 2.208c-.1093 1.6523-.5166 4.5732-.9472 7.667-.5781 4.15-1.2334 8.8535-1.2334 11.0332a62.0738 62.0738 0 0 0 1.0742 8.165c.4526 2.6641.88 5.18 1.0171 7.0332a3.0177 3.0177 0 0 1 -3.0171 3.2364zm-27.9531-37.8428a.5688.5688 0 0 0 -.5689.6308c.4654 4.1299 1.5475 14.1485 1.5475 17.9717 0 3.47-.8848 11.5449-1.4121 16.0488a1.4932 1.4932 0 0 0 .3721 1.1807 1.5121 1.5121 0 0 0 1.1431.5108h26.8714a1.5161 1.5161 0 0 0 1.1216-.4864 1.4985 1.4985 0 0 0 .3994-1.1406c-.1314-1.7822-.5728-4.3789-1-6.8906a62.53 62.53 0 0 1 -1.0957-8.417 111.22 111.22 0 0 1 1.2475-11.24c.4273-3.0655.8306-5.961.9361-7.56a.5707.5707 0 0 0 -.57-.6084z" fill="#3a3939"/><path d="m.75 4.1064 2.24-2.2538a3.7377 3.7377 0 0 1 2.6509-1.1026h22.105a3.7372 3.7372 0 0 1 2.651 1.1029l2.24 2.2538z" fill="#f2f0dd"/><path d="m32.6366 4.8564h-31.8866a.75.75 0 0 1 -.5323-1.2783l2.24-2.2539a4.517 4.517 0 0 1 3.1833-1.3242h22.105a4.5165 4.5165 0 0 1 3.1831 1.3242l2.24 2.2539a.75.75 0 0 1 -.5323 1.2783zm-30.0839-1.5h28.2812l-.9692-.9755a3.0072 3.0072 0 0 0 -2.1187-.8809h-22.105a2.9658 2.9658 0 0 0 -2.1191.8809z" fill="#3a3939"/><path d="m26.3994 7.1581h1.2156c.8721 0 1.579 0 1.579 1.5789l-.752 4.652" fill="#f7f6e8"/><path d="m28.4423 13.8887a.4461.4461 0 0 1 -.08-.0069.5.5 0 0 1 -.414-.5732l.7517-4.6514c-.0063-.999-.2134-.999-1.0849-.999h-1.2158a.5.5 0 1 1 0-1h1.2159c.8774 0 2.0786 0 2.0786 2.0791l-.7583 4.7315a.5.5 0 0 1 -.4932.4199z" fill="#3a3939"/><path d="m6.7651 39.0593h-1.2151c-2.0157 0-1.42-1.8909-1.37-2.7615a19.8572 19.8572 0 0 1 .26-2.03" fill="#f7f6e8"/><path d="m6.7651 39.56h-1.2159a1.9674 1.9674 0 0 1 -1.5546-.585 2.85 2.85 0 0 1 -.3589-2.295c.0195-.1514.0381-.292.0454-.4111a19.8977 19.8977 0 0 1 .2671-2.0918.5.5 0 0 1 .9834.1816 19.3057 19.3057 0 0 0 -.2525 1.9678c-.0078.1406-.0288.3037-.0517.4814-.065.5059-.1543 1.1973.1181 1.5069a1.0467 1.0467 0 0 0 .8037.2451h1.2159a.5.5 0 1 1 0 1z" fill="#3a3939"/><path d="m28.0345 15.5532a21.0762 21.0762 0 0 0 -.6547 5.0533" fill="#f7f6e8"/><path d="m27.38 21.1064a.5006.5006 0 0 1 -.5-.4873 21.3753 21.3753 0 0 1 .6714-5.1943.5.5 0 0 1 .9668.2568 20.68 20.68 0 0 0 -.6382 4.9122.5.5 0 0 1 -.4873.5126z" fill="#3a3939"/></svg>

<svg xmlns="http://www.w3.org/2000/svg" viewBox="0 0 33.3866 42.5977"><defs><style>.cls-1{fill:#f7f6e8;}.cls-2{fill:#3a3939;}.cls-3{fill:#f2f0dd;}</style></defs><title>Asset 157</title><g id="Layer_2" data-name="Layer 2"><g id="Layer_3" data-name="Layer 3"><path class="cls-1" d="M30.1847,41.8474H3.3131a2.2667,2.2667,0,0,1-2.26-2.5284C1.5447,35.12,2.4606,26.8274,2.4606,23.3579c0-3.8236-1.1124-14.066-1.543-17.8878A1.3182,1.3182,0,0,1,2.2314,4.0052h28.992a1.3208,1.3208,0,0,1,1.3189,1.4079c-.2558,3.8653-2.182,14.9-2.182,18.75,0,3.4636,1.7951,11.2019,2.093,15.2532A2.2666,2.2666,0,0,1,30.1847,41.8474Z"/><path class="cls-2" d="M30.1845,42.5977H3.3129A3.0174,3.0174,0,0,1,.308,39.2324C.73,35.6318,1.71,26.8779,1.71,23.3574,1.71,19.61.6347,9.6582.1723,5.5537A2.0693,2.0693,0,0,1,2.2314,3.2549H31.2236a2.0719,2.0719,0,0,1,2.0673,2.208c-.1093,1.6523-.5166,4.5732-.9472,7.667-.5781,4.15-1.2334,8.8535-1.2334,11.0332a62.0738,62.0738,0,0,0,1.0742,8.165c.4526,2.6641.88,5.18,1.0171,7.0332a3.0177,3.0177,0,0,1-3.0171,3.2364ZM2.2314,4.7549a.5688.5688,0,0,0-.5689.6308C2.1279,9.5156,3.21,19.5342,3.21,23.3574c0,3.47-.8848,11.5449-1.4121,16.0488A1.4932,1.4932,0,0,0,2.17,40.5869a1.5121,1.5121,0,0,0,1.1431.5108H30.1845a1.5161,1.5161,0,0,0,1.1216-.4864,1.4985,1.4985,0,0,0,.3994-1.1406c-.1314-1.7822-.5728-4.3789-1-6.8906a62.53,62.53,0,0,1-1.0957-8.417,111.22,111.22,0,0,1,1.2475-11.24c.4273-3.0655.8306-5.961.9361-7.56a.5707.5707,0,0,0-.57-.6084Z"/><path class="cls-3" d="M.75,4.1064,2.99,1.8526A3.7377,3.7377,0,0,1,5.6409.75h22.105a3.7372,3.7372,0,0,1,2.651,1.1029l2.24,2.2538Z"/><path class="cls-2" d="M32.6366,4.8564H.75A.75.75,0,0,1,.2177,3.5781l2.24-2.2539A4.517,4.517,0,0,1,5.641,0H27.746a4.5165,4.5165,0,0,1,3.1831,1.3242l2.24,2.2539a.75.75,0,0,1-.5323,1.2783Zm-30.0839-1.5H30.8339l-.9692-.9755A3.0072,3.0072,0,0,0,27.746,1.5H5.641a2.9658,2.9658,0,0,0-2.1191.8809Z"/><path class="cls-1" d="M26.3994,7.1581H27.615c.8721,0,1.579,0,1.579,1.5789l-.752,4.652"/><path class="cls-2" d="M28.4423,13.8887a.4461.4461,0,0,1-.08-.0069.5.5,0,0,1-.414-.5732L28.7,8.6572c-.0063-.999-.2134-.999-1.0849-.999H26.3993a.5.5,0,1,1,0-1h1.2159c.8774,0,2.0786,0,2.0786,2.0791l-.7583,4.7315A.5.5,0,0,1,28.4423,13.8887Z"/><path class="cls-1" d="M6.7651,39.0593H5.55c-2.0157,0-1.42-1.8909-1.37-2.7615a19.8572,19.8572,0,0,1,.26-2.03"/><path class="cls-2" d="M6.7651,39.56H5.5492a1.9674,1.9674,0,0,1-1.5546-.585A2.85,2.85,0,0,1,3.6357,36.68c.0195-.1514.0381-.292.0454-.4111a19.8977,19.8977,0,0,1,.2671-2.0918.5.5,0,0,1,.9834.1816,19.3057,19.3057,0,0,0-.2525,1.9678c-.0078.1406-.0288.3037-.0517.4814-.065.5059-.1543,1.1973.1181,1.5069a1.0467,1.0467,0,0,0,.8037.2451H6.7651a.5.5,0,1,1,0,1Z"/><path class="cls-1" d="M28.0345,15.5532a21.0762,21.0762,0,0,0-.6547,5.0533"/><path class="cls-2" d="M27.38,21.1064a.5006.5006,0,0,1-.5-.4873,21.3753,21.3753,0,0,1,.6714-5.1943.5.5,0,0,1,.9668.2568,20.68,20.68,0,0,0-.6382,4.9122.5.5,0,0,1-.4873.5126Z"/></g></g></svg>
